report_00007_2020-12-11T15:55:29.892Z/unused-javascript/comparison/line/1_vs_2.svg

<svg width="640" height="500" xmlns="http://www.w3.org/2000/svg" xmlns:xlink="http://www.w3.org/1999/xlink"><path fill="#fff" d="M0 0h640v500H0z"/><defs><path id="d" stroke-width=".222" stroke="currentColor" d="M-1-1h2v2h-2z"/><path id="b" stroke-width=".222" stroke="currentColor" d="M0-1.33l-1.33 2h2.66z"/><path id="f" stroke-width=".222" stroke="currentColor" d="M0 1.33L1.265.411.782-1.067l-1.564-.009-.483 1.487z"/><use xlink:href="#b" id="c" stroke="currentColor" transform="rotate(180)"/><use xlink:href="#d" id="e" stroke="currentColor" transform="rotate(45)"/><circle id="a" stroke-width=".222" stroke="currentColor" cx="0" cy="0" r="1"/></defs><g fill="none" color="#000" stroke="currentColor"><path stroke="#000" d="M62.2 437.8h9m543.8 0h-9"/><text transform="translate(53.9 441.7)" stroke="none" fill="#000" font-family="Arial" font-size="12" text-anchor="end"><tspan>1500</tspan></text></g><g fill="none" color="#000" stroke="currentColor"><path stroke="#000" d="M62.2 372.3h9m543.8 0h-9"/><text transform="translate(53.9 376.2)" stroke="none" fill="#000" font-family="Arial" font-size="12" text-anchor="end"><tspan>2000</tspan></text></g><g fill="none" color="#000" stroke="currentColor"><path stroke="#000" d="M62.2 306.7h9m543.8 0h-9"/><text transform="translate(53.9 310.6)" stroke="none" fill="#000" font-family="Arial" font-size="12" text-anchor="end"><tspan>2500</tspan></text></g><g fill="none" color="#000" stroke="currentColor"><path stroke="#000" d="M62.2 241.2h9m543.8 0h-9"/><text transform="translate(53.9 245.1)" stroke="none" fill="#000" font-family="Arial" font-size="12" text-anchor="end"><tspan>3000</tspan></text></g><g fill="none" color="#000" stroke="currentColor"><path stroke="#000" d="M62.2 175.7h9m543.8 0h-9"/><text transform="translate(53.9 179.6)" stroke="none" fill="#000" font-family="Arial" font-size="12" text-anchor="end"><tspan>3500</tspan></text></g><g fill="none" color="#000" stroke="currentColor"><path stroke="#000" d="M62.2 110.2h9m543.8 0h-9"/><text transform="translate(53.9 114.1)" stroke="none" fill="#000" font-family="Arial" font-size="12" text-anchor="end"><tspan>4000</tspan></text></g><g fill="none" color="#000" stroke="currentColor"><path stroke="#000" d="M62.2 44.7h9m543.8 0h-9"/><text transform="translate(53.9 48.6)" stroke="none" fill="#000" font-family="Arial" font-size="12" text-anchor="end"><tspan>4500</tspan></text></g><g fill="none" color="#000" stroke="currentColor"><path stroke="#000" d="M62.2 446v-9m0-418.9v9"/><text transform="translate(62.2 467.9)" stroke="none" fill="#000" font-family="Arial" font-size="12" text-anchor="middle"><tspan>0</tspan></text></g><g fill="none" color="#000" stroke="currentColor"><path stroke="#000" d="M118 446v-9m0-418.9v9"/><text transform="translate(118 467.9)" stroke="none" fill="#000" font-family="Arial" font-size="12" text-anchor="middle"><tspan>10</tspan></text></g><g fill="none" color="#000" stroke="currentColor"><path stroke="#000" d="M173.9 446v-9m0-418.9v9"/><text transform="translate(173.9 467.9)" stroke="none" fill="#000" font-family="Arial" font-size="12" text-anchor="middle"><tspan>20</tspan></text></g><g fill="none" color="#000" stroke="currentColor"><path stroke="#000" d="M229.7 446v-9m0-418.9v9"/><text transform="translate(229.7 467.9)" stroke="none" fill="#000" font-family="Arial" font-size="12" text-anchor="middle"><tspan>30</tspan></text></g><g fill="none" color="#000" stroke="currentColor"><path stroke="#000" d="M285.6 446v-9m0-418.9v9"/><text transform="translate(285.6 467.9)" stroke="none" fill="#000" font-family="Arial" font-size="12" text-anchor="middle"><tspan>40</tspan></text></g><g fill="none" color="#000" stroke="currentColor"><path stroke="#000" d="M341.4 446v-9m0-418.9v9"/><text transform="translate(341.4 467.9)" stroke="none" fill="#000" font-family="Arial" font-size="12" text-anchor="middle"><tspan>50</tspan></text></g><g fill="none" color="#000" stroke="currentColor"><path stroke="#000" d="M397.2 446v-9m0-418.9v9"/><text transform="translate(397.2 467.9)" stroke="none" fill="#000" font-family="Arial" font-size="12" text-anchor="middle"><tspan>60</tspan></text></g><g fill="none" color="#000" stroke="currentColor"><path stroke="#000" d="M453.1 446v-9m0-418.9v9"/><text transform="translate(453.1 467.9)" stroke="none" fill="#000" font-family="Arial" font-size="12" text-anchor="middle"><tspan>70</tspan></text></g><g fill="none" color="#000" stroke="currentColor"><path stroke="#000" d="M508.9 446v-9m0-418.9v9"/><text transform="translate(508.9 467.9)" stroke="none" fill="#000" font-family="Arial" font-size="12" text-anchor="middle"><tspan>80</tspan></text></g><g fill="none" color="#000" stroke="currentColor"><path stroke="#000" d="M564.7 446v-9m0-418.9v9"/><text transform="translate(564.7 467.9)" stroke="none" fill="#000" font-family="Arial" font-size="12" text-anchor="middle"><tspan>90</tspan></text></g><path stroke="#000" d="M62.2 18.1V446H615V18.1H62.2z" fill="none" color="#000"/><text transform="translate(279.8 485.9)" stroke="none" fill="#000" font-family="Arial" font-size="12" text-anchor="end" color="#000"><tspan>pages</tspan></text><path stroke="#9400D3" d="M288.1 482h42.2M62.2 260.9L67.8 84l5.6-57.7L79 52.5l5.5 4 5.6 23.6 5.6-21 5.6-18.4 5.6 18.4 5.6 2.6 5.5 15.7 5.6-28.8 5.6 30.1 5.6-2.6 5.6-3.9 5.6-22.3 5.5 14.4 5.6-1.3 5.6-6.5 5.6 20.9 5.6-13.1 5.6 15.8 5.5-28.9 5.6 2.6 5.6 7.9 5.6 15.7 5.6-14.4 5.6 14.4 5.5 1.3 5.6-44.5 5.6 27.5 5.6 7.9 5.6 7.8 5.6-17 5.6 3.9 5.5 14.4 5.6-18.3 5.6 18.3 5.6-6.5 5.6-10.5 5.6-2.6 5.5 1.3 5.6 3.9 5.6-17 5.6 13.1 5.6-9.2 5.6 11.8 5.5-34.1 5.6 34.1 5.6-9.2H347l5.6 2.7 5.5-4 5.6 6.6 5.6 17 5.6-35.4 5.6 17.1 5.6 2.6 5.5-6.6 5.6 19.7 5.6 6.6 5.6-7.9 5.6-11.8 5.6-9.2 5.5-7.8 5.6 34 5.6-20.9 5.6-18.4 5.6 39.3h5.6l5.6 2.7 5.5-7.9 5.6-13.1 5.6-22.3 5.6 41.9 5.6-1.3h16.7l5.6-23.6 5.6 22.3 5.6 1.3 5.6-48.5 5.5 51.2 5.6 357.7 5.6-339.4 5.6-57.7 5.6 11.8 5.6 10.5 5.5 14.4 5.6-6.5 5.6-11.8h5.6l5.6-3.9 5.6-1.4 5.5 23.6 5.6-15.7 5.6 18.4 5.6-30.2" fill="none" color="#000"/><text transform="translate(438.2 485.9)" stroke="none" fill="#000" font-family="Arial" font-size="12" text-anchor="end" color="#000"><tspan>pages+cached</tspan></text><path stroke="#009E73" d="M446.5 482h42.2M62.2 61.7l5.6-23.6 5.6-9.2 5.6 7.9h5.5l5.6 1.3 5.6-1.3h5.6l5.6 1.3 5.6-1.3h5.5l5.6-1.3 5.6 1.3 5.6 2.6 5.6-2.6 5.6 1.3 5.5-1.3 5.6 1.3h5.6l5.6-1.3h27.9l5.6 1.3 5.6-1.3h27.9l5.6 1.3 5.6-1.3h5.6l5.5 1.3 5.6-1.3H319.1l5.5 3.9 5.6-3.9H347l5.6 1.3 5.5-1.3h5.6l5.6 1.3h5.6l5.6-1.3h5.6l5.5 1.3 5.6-1.3h22.4l5.5 1.3 5.6-1.3h5.6l5.6 1.3h5.6l5.6-1.3h16.7l5.6 1.3 5.6-1.3 5.6-1.3h5.6l5.5 1.3H514.5l5.6 1.3 5.6-1.3h39l5.6 1.3 5.6-1.3h27.9l5.6 1.3 5.6-1.3" fill="none" color="#000"/><g fill="none" color="#000" stroke="currentColor"><path stroke="#000" d="M62.2 18.1V446H615V18.1H62.2z"/></g></svg>

<?xml version="1.0" encoding="utf-8"  standalone="no"?>
<svg 
 width="640" height="500"
 viewBox="0 0 640 500"
 xmlns="http://www.w3.org/2000/svg"
 xmlns:xlink="http://www.w3.org/1999/xlink"
>

<title>Gnuplot</title>
<desc>Produced by GNUPLOT 5.4 patchlevel 0 </desc>

<g id="gnuplot_canvas">

<rect x="0" y="0" width="640" height="500" fill="#ffffff"/>
<defs>

	<circle id='gpDot' r='0.5' stroke-width='0.5' stroke='currentColor'/>
	<path id='gpPt0' stroke-width='0.222' stroke='currentColor' d='M-1,0 h2 M0,-1 v2'/>
	<path id='gpPt1' stroke-width='0.222' stroke='currentColor' d='M-1,-1 L1,1 M1,-1 L-1,1'/>
	<path id='gpPt2' stroke-width='0.222' stroke='currentColor' d='M-1,0 L1,0 M0,-1 L0,1 M-1,-1 L1,1 M-1,1 L1,-1'/>
	<rect id='gpPt3' stroke-width='0.222' stroke='currentColor' x='-1' y='-1' width='2' height='2'/>
	<rect id='gpPt4' stroke-width='0.222' stroke='currentColor' fill='currentColor' x='-1' y='-1' width='2' height='2'/>
	<circle id='gpPt5' stroke-width='0.222' stroke='currentColor' cx='0' cy='0' r='1'/>
	<use xlink:href='#gpPt5' id='gpPt6' fill='currentColor' stroke='none'/>
	<path id='gpPt7' stroke-width='0.222' stroke='currentColor' d='M0,-1.33 L-1.33,0.67 L1.33,0.67 z'/>
	<use xlink:href='#gpPt7' id='gpPt8' fill='currentColor' stroke='none'/>
	<use xlink:href='#gpPt7' id='gpPt9' stroke='currentColor' transform='rotate(180)'/>
	<use xlink:href='#gpPt9' id='gpPt10' fill='currentColor' stroke='none'/>
	<use xlink:href='#gpPt3' id='gpPt11' stroke='currentColor' transform='rotate(45)'/>
	<use xlink:href='#gpPt11' id='gpPt12' fill='currentColor' stroke='none'/>
	<path id='gpPt13' stroke-width='0.222' stroke='currentColor' d='M0,1.330 L1.265,0.411 L0.782,-1.067 L-0.782,-1.076 L-1.265,0.411 z'/>
	<use xlink:href='#gpPt13' id='gpPt14' fill='currentColor' stroke='none'/>
	<filter id='textbox' filterUnits='objectBoundingBox' x='0' y='0' height='1' width='1'>
	  <feFlood flood-color='#FFFFFF' flood-opacity='1' result='bgnd'/>
	  <feComposite in='SourceGraphic' in2='bgnd' operator='atop'/>
	</filter>
	<filter id='greybox' filterUnits='objectBoundingBox' x='0' y='0' height='1' width='1'>
	  <feFlood flood-color='lightgrey' flood-opacity='1' result='grey'/>
	  <feComposite in='SourceGraphic' in2='grey' operator='atop'/>
	</filter>
</defs>
<g fill="none" color="#FFFFFF" stroke="black" stroke-width="1.00" stroke-linecap="butt" stroke-linejoin="miter">
</g>
<g fill="none" color="black" stroke="currentColor" stroke-width="1.00" stroke-linecap="butt" stroke-linejoin="miter">
	<path stroke='black'  d='M62.2,437.8 L71.2,437.8 M615.0,437.8 L606.0,437.8  '/>	<g transform="translate(53.9,441.7)" stroke="none" fill="black" font-family="Arial" font-size="12.00"  text-anchor="end">
		<text><tspan font-family="Arial" > 1500</tspan></text>
	</g>
</g>
<g fill="none" color="black" stroke="currentColor" stroke-width="1.00" stroke-linecap="butt" stroke-linejoin="miter">
	<path stroke='black'  d='M62.2,372.3 L71.2,372.3 M615.0,372.3 L606.0,372.3  '/>	<g transform="translate(53.9,376.2)" stroke="none" fill="black" font-family="Arial" font-size="12.00"  text-anchor="end">
		<text><tspan font-family="Arial" > 2000</tspan></text>
	</g>
</g>
<g fill="none" color="black" stroke="currentColor" stroke-width="1.00" stroke-linecap="butt" stroke-linejoin="miter">
	<path stroke='black'  d='M62.2,306.7 L71.2,306.7 M615.0,306.7 L606.0,306.7  '/>	<g transform="translate(53.9,310.6)" stroke="none" fill="black" font-family="Arial" font-size="12.00"  text-anchor="end">
		<text><tspan font-family="Arial" > 2500</tspan></text>
	</g>
</g>
<g fill="none" color="black" stroke="currentColor" stroke-width="1.00" stroke-linecap="butt" stroke-linejoin="miter">
	<path stroke='black'  d='M62.2,241.2 L71.2,241.2 M615.0,241.2 L606.0,241.2  '/>	<g transform="translate(53.9,245.1)" stroke="none" fill="black" font-family="Arial" font-size="12.00"  text-anchor="end">
		<text><tspan font-family="Arial" > 3000</tspan></text>
	</g>
</g>
<g fill="none" color="black" stroke="currentColor" stroke-width="1.00" stroke-linecap="butt" stroke-linejoin="miter">
	<path stroke='black'  d='M62.2,175.7 L71.2,175.7 M615.0,175.7 L606.0,175.7  '/>	<g transform="translate(53.9,179.6)" stroke="none" fill="black" font-family="Arial" font-size="12.00"  text-anchor="end">
		<text><tspan font-family="Arial" > 3500</tspan></text>
	</g>
</g>
<g fill="none" color="black" stroke="currentColor" stroke-width="1.00" stroke-linecap="butt" stroke-linejoin="miter">
	<path stroke='black'  d='M62.2,110.2 L71.2,110.2 M615.0,110.2 L606.0,110.2  '/>	<g transform="translate(53.9,114.1)" stroke="none" fill="black" font-family="Arial" font-size="12.00"  text-anchor="end">
		<text><tspan font-family="Arial" > 4000</tspan></text>
	</g>
</g>
<g fill="none" color="black" stroke="currentColor" stroke-width="1.00" stroke-linecap="butt" stroke-linejoin="miter">
	<path stroke='black'  d='M62.2,44.7 L71.2,44.7 M615.0,44.7 L606.0,44.7  '/>	<g transform="translate(53.9,48.6)" stroke="none" fill="black" font-family="Arial" font-size="12.00"  text-anchor="end">
		<text><tspan font-family="Arial" > 4500</tspan></text>
	</g>
</g>
<g fill="none" color="black" stroke="currentColor" stroke-width="1.00" stroke-linecap="butt" stroke-linejoin="miter">
	<path stroke='black'  d='M62.2,446.0 L62.2,437.0 M62.2,18.1 L62.2,27.1  '/>	<g transform="translate(62.2,467.9)" stroke="none" fill="black" font-family="Arial" font-size="12.00"  text-anchor="middle">
		<text><tspan font-family="Arial" > 0</tspan></text>
	</g>
</g>
<g fill="none" color="black" stroke="currentColor" stroke-width="1.00" stroke-linecap="butt" stroke-linejoin="miter">
	<path stroke='black'  d='M118.0,446.0 L118.0,437.0 M118.0,18.1 L118.0,27.1  '/>	<g transform="translate(118.0,467.9)" stroke="none" fill="black" font-family="Arial" font-size="12.00"  text-anchor="middle">
		<text><tspan font-family="Arial" > 10</tspan></text>
	</g>
</g>
<g fill="none" color="black" stroke="currentColor" stroke-width="1.00" stroke-linecap="butt" stroke-linejoin="miter">
	<path stroke='black'  d='M173.9,446.0 L173.9,437.0 M173.9,18.1 L173.9,27.1  '/>	<g transform="translate(173.9,467.9)" stroke="none" fill="black" font-family="Arial" font-size="12.00"  text-anchor="middle">
		<text><tspan font-family="Arial" > 20</tspan></text>
	</g>
</g>
<g fill="none" color="black" stroke="currentColor" stroke-width="1.00" stroke-linecap="butt" stroke-linejoin="miter">
	<path stroke='black'  d='M229.7,446.0 L229.7,437.0 M229.7,18.1 L229.7,27.1  '/>	<g transform="translate(229.7,467.9)" stroke="none" fill="black" font-family="Arial" font-size="12.00"  text-anchor="middle">
		<text><tspan font-family="Arial" > 30</tspan></text>
	</g>
</g>
<g fill="none" color="black" stroke="currentColor" stroke-width="1.00" stroke-linecap="butt" stroke-linejoin="miter">
	<path stroke='black'  d='M285.6,446.0 L285.6,437.0 M285.6,18.1 L285.6,27.1  '/>	<g transform="translate(285.6,467.9)" stroke="none" fill="black" font-family="Arial" font-size="12.00"  text-anchor="middle">
		<text><tspan font-family="Arial" > 40</tspan></text>
	</g>
</g>
<g fill="none" color="black" stroke="currentColor" stroke-width="1.00" stroke-linecap="butt" stroke-linejoin="miter">
	<path stroke='black'  d='M341.4,446.0 L341.4,437.0 M341.4,18.1 L341.4,27.1  '/>	<g transform="translate(341.4,467.9)" stroke="none" fill="black" font-family="Arial" font-size="12.00"  text-anchor="middle">
		<text><tspan font-family="Arial" > 50</tspan></text>
	</g>
</g>
<g fill="none" color="black" stroke="currentColor" stroke-width="1.00" stroke-linecap="butt" stroke-linejoin="miter">
	<path stroke='black'  d='M397.2,446.0 L397.2,437.0 M397.2,18.1 L397.2,27.1  '/>	<g transform="translate(397.2,467.9)" stroke="none" fill="black" font-family="Arial" font-size="12.00"  text-anchor="middle">
		<text><tspan font-family="Arial" > 60</tspan></text>
	</g>
</g>
<g fill="none" color="black" stroke="currentColor" stroke-width="1.00" stroke-linecap="butt" stroke-linejoin="miter">
	<path stroke='black'  d='M453.1,446.0 L453.1,437.0 M453.1,18.1 L453.1,27.1  '/>	<g transform="translate(453.1,467.9)" stroke="none" fill="black" font-family="Arial" font-size="12.00"  text-anchor="middle">
		<text><tspan font-family="Arial" > 70</tspan></text>
	</g>
</g>
<g fill="none" color="black" stroke="currentColor" stroke-width="1.00" stroke-linecap="butt" stroke-linejoin="miter">
	<path stroke='black'  d='M508.9,446.0 L508.9,437.0 M508.9,18.1 L508.9,27.1  '/>	<g transform="translate(508.9,467.9)" stroke="none" fill="black" font-family="Arial" font-size="12.00"  text-anchor="middle">
		<text><tspan font-family="Arial" > 80</tspan></text>
	</g>
</g>
<g fill="none" color="black" stroke="currentColor" stroke-width="1.00" stroke-linecap="butt" stroke-linejoin="miter">
	<path stroke='black'  d='M564.7,446.0 L564.7,437.0 M564.7,18.1 L564.7,27.1  '/>	<g transform="translate(564.7,467.9)" stroke="none" fill="black" font-family="Arial" font-size="12.00"  text-anchor="middle">
		<text><tspan font-family="Arial" > 90</tspan></text>
	</g>
</g>
<g fill="none" color="black" stroke="currentColor" stroke-width="1.00" stroke-linecap="butt" stroke-linejoin="miter">
</g>
<g fill="none" color="black" stroke="currentColor" stroke-width="1.00" stroke-linecap="butt" stroke-linejoin="miter">
	<path stroke='black'  d='M62.2,18.1 L62.2,446.0 L615.0,446.0 L615.0,18.1 L62.2,18.1 Z  '/></g>
<g fill="none" color="black" stroke="currentColor" stroke-width="1.00" stroke-linecap="butt" stroke-linejoin="miter">
</g>
	<g id="gnuplot_plot_1" ><title>pages</title>
<g fill="none" color="black" stroke="currentColor" stroke-width="1.00" stroke-linecap="butt" stroke-linejoin="miter">
	<g transform="translate(279.8,485.9)" stroke="none" fill="black" font-family="Arial" font-size="12.00"  text-anchor="end">
		<text><tspan font-family="Arial" >pages</tspan></text>
	</g>
</g>
<g fill="none" color="black" stroke="currentColor" stroke-width="1.00" stroke-linecap="butt" stroke-linejoin="miter">
	<path stroke='rgb(148,   0, 211)'  d='M288.1,482.0 L330.3,482.0 M62.2,260.9 L67.8,84.0 L73.4,26.3 L79.0,52.5 L84.5,56.5 L90.1,80.1
		L95.7,59.1 L101.3,40.7 L106.9,59.1 L112.5,61.7 L118.0,77.4 L123.6,48.6 L129.2,78.7 L134.8,76.1
		L140.4,72.2 L146.0,49.9 L151.5,64.3 L157.1,63.0 L162.7,56.5 L168.3,77.4 L173.9,64.3 L179.5,80.1
		L185.0,51.2 L190.6,53.8 L196.2,61.7 L201.8,77.4 L207.4,63.0 L213.0,77.4 L218.5,78.7 L224.1,34.2
		L229.7,61.7 L235.3,69.6 L240.9,77.4 L246.5,60.4 L252.1,64.3 L257.6,78.7 L263.2,60.4 L268.8,78.7
		L274.4,72.2 L280.0,61.7 L285.6,59.1 L291.1,60.4 L296.7,64.3 L302.3,47.3 L307.9,60.4 L313.5,51.2
		L319.1,63.0 L324.6,28.9 L330.2,63.0 L335.8,53.8 L341.4,53.8 L347.0,53.8 L352.6,56.5 L358.1,52.5
		L363.7,59.1 L369.3,76.1 L374.9,40.7 L380.5,57.8 L386.1,60.4 L391.6,53.8 L397.2,73.5 L402.8,80.1
		L408.4,72.2 L414.0,60.4 L419.6,51.2 L425.1,43.4 L430.7,77.4 L436.3,56.5 L441.9,38.1 L447.5,77.4
		L453.1,77.4 L458.7,80.1 L464.2,72.2 L469.8,59.1 L475.4,36.8 L481.0,78.7 L486.6,77.4 L492.2,77.4
		L497.7,77.4 L503.3,77.4 L508.9,53.8 L514.5,76.1 L520.1,77.4 L525.7,28.9 L531.2,80.1 L536.8,437.8
		L542.4,98.4 L548.0,40.7 L553.6,52.5 L559.2,63.0 L564.7,77.4 L570.3,70.9 L575.9,59.1 L581.5,59.1
		L587.1,55.2 L592.7,53.8 L598.2,77.4 L603.8,61.7 L609.4,80.1 L615.0,49.9  '/></g>
	</g>
	<g id="gnuplot_plot_2" ><title>pages+cached</title>
<g fill="none" color="black" stroke="currentColor" stroke-width="1.00" stroke-linecap="butt" stroke-linejoin="miter">
	<g transform="translate(438.2,485.9)" stroke="none" fill="black" font-family="Arial" font-size="12.00"  text-anchor="end">
		<text><tspan font-family="Arial" >pages+cached</tspan></text>
	</g>
</g>
<g fill="none" color="black" stroke="currentColor" stroke-width="1.00" stroke-linecap="butt" stroke-linejoin="miter">
	<path stroke='rgb(  0, 158, 115)'  d='M446.5,482.0 L488.7,482.0 M62.2,61.7 L67.8,38.1 L73.4,28.9 L79.0,36.8 L84.5,36.8 L90.1,38.1
		L95.7,36.8 L101.3,36.8 L106.9,38.1 L112.5,36.8 L118.0,36.8 L123.6,35.5 L129.2,36.8 L134.8,39.4
		L140.4,36.8 L146.0,38.1 L151.5,36.8 L157.1,38.1 L162.7,38.1 L168.3,36.8 L173.9,36.8 L179.5,36.8
		L185.0,36.8 L190.6,36.8 L196.2,36.8 L201.8,38.1 L207.4,36.8 L213.0,36.8 L218.5,36.8 L224.1,36.8
		L229.7,36.8 L235.3,36.8 L240.9,38.1 L246.5,36.8 L252.1,36.8 L257.6,38.1 L263.2,36.8 L268.8,36.8
		L274.4,36.8 L280.0,36.8 L285.6,36.8 L291.1,36.8 L296.7,36.8 L302.3,36.8 L307.9,36.8 L313.5,36.8
		L319.1,36.8 L324.6,40.7 L330.2,36.8 L335.8,36.8 L341.4,36.8 L347.0,36.8 L352.6,38.1 L358.1,36.8
		L363.7,36.8 L369.3,38.1 L374.9,38.1 L380.5,36.8 L386.1,36.8 L391.6,38.1 L397.2,36.8 L402.8,36.8
		L408.4,36.8 L414.0,36.8 L419.6,36.8 L425.1,38.1 L430.7,36.8 L436.3,36.8 L441.9,38.1 L447.5,38.1
		L453.1,36.8 L458.7,36.8 L464.2,36.8 L469.8,36.8 L475.4,38.1 L481.0,36.8 L486.6,35.5 L492.2,35.5
		L497.7,36.8 L503.3,36.8 L508.9,36.8 L514.5,36.8 L520.1,38.1 L525.7,36.8 L531.2,36.8 L536.8,36.8
		L542.4,36.8 L548.0,36.8 L553.6,36.8 L559.2,36.8 L564.7,36.8 L570.3,38.1 L575.9,36.8 L581.5,36.8
		L587.1,36.8 L592.7,36.8 L598.2,36.8 L603.8,36.8 L609.4,38.1 L615.0,36.8  '/></g>
	</g>
<g fill="none" color="#FFFFFF" stroke="rgb(  0, 158, 115)" stroke-width="2.00" stroke-linecap="butt" stroke-linejoin="miter">
</g>
<g fill="none" color="black" stroke="currentColor" stroke-width="2.00" stroke-linecap="butt" stroke-linejoin="miter">
</g>
<g fill="none" color="black" stroke="black" stroke-width="1.00" stroke-linecap="butt" stroke-linejoin="miter">
</g>
<g fill="none" color="black" stroke="currentColor" stroke-width="1.00" stroke-linecap="butt" stroke-linejoin="miter">
	<path stroke='black'  d='M62.2,18.1 L62.2,446.0 L615.0,446.0 L615.0,18.1 L62.2,18.1 Z  '/></g>
<g fill="none" color="black" stroke="currentColor" stroke-width="1.00" stroke-linecap="butt" stroke-linejoin="miter">
</g>
</g>
</svg>
